client/assets/images/customer-home/illustration--secondary-earn.svg

<svg width="201" height="114" viewBox="0 0 201 114" fill="none" xmlns="http://www.w3.org/2000/svg">
<g clip-path="url(#clip0_2_14355)">
<path d="M0.5 2.5C0.5 1.39543 1.39543 0.5 2.5 0.5H198.5C199.605 0.5 200.5 1.39543 200.5 2.5V111.5C200.5 112.605 199.605 113.5 198.5 113.5H2.5C1.39543 113.5 0.5 112.605 0.5 111.5V2.5Z" fill="white" stroke="#C3C4C7"/>
<path d="M188 77H93C90.7909 77 89 78.7909 89 81V101C89 103.209 90.7909 105 93 105H188C190.209 105 192 103.209 192 101V81C192 78.7909 190.209 77 188 77Z" fill="#3858E9"/>
<path d="M77 9.5H13C11.067 9.5 9.5 11.067 9.5 13V101C9.5 102.933 11.067 104.5 13 104.5H77C78.933 104.5 80.5 102.933 80.5 101V13C80.5 11.067 78.933 9.5 77 9.5Z" fill="#F6F7F7" stroke="#C3C4C7"/>
<path d="M52 48.75H38C37.3096 48.75 36.75 49.3096 36.75 50V64C36.75 64.6904 37.3096 65.25 38 65.25H52C52.6904 65.25 53.25 64.6904 53.25 64V50C53.25 49.3096 52.6904 48.75 52 48.75Z" stroke="#A7AAAD" stroke-width="1.5"/>
<path d="M37 61L41.571 57.667L45 59.889L49 56L53 59.889" stroke="#A7AAAD" stroke-width="1.5" stroke-linejoin="round"/>
<path d="M121 87H177V95H121V87Z" fill="white"/>
<path d="M89 13H161V25H89V13Z" fill="#646970"/>
<path d="M89 33H185V41H89V33ZM89 45H129V53H89V45Z" fill="#DCDCDE"/>
<path d="M113.001 91C113.001 86.5817 109.419 83 105.001 83C100.583 83 97.001 86.5817 97.001 91C97.001 95.4183 100.583 99 105.001 99C109.419 99 113.001 95.4183 113.001 91Z" stroke="white" stroke-width="1.5"/>
<path d="M106.75 89.25C106.75 89.4489 106.829 89.6397 106.97 89.7803C107.11 89.921 107.301 90 107.5 90C107.699 90 107.89 89.921 108.03 89.7803C108.171 89.6397 108.25 89.4489 108.25 89.25H106.75ZM105 90.25C104.445 90.25 103.974 90.091 103.662 89.873C103.348 89.653 103.25 89.421 103.25 89.25H101.75C101.75 90.045 102.211 90.688 102.802 91.102C103.395 91.517 104.175 91.75 105 91.75V90.25ZM103.25 89.25C103.25 89.079 103.348 88.847 103.662 88.627C103.974 88.409 104.445 88.25 105 88.25V86.75C104.175 86.75 103.395 86.983 102.802 87.398C102.211 87.812 101.75 88.455 101.75 89.25H103.25ZM105 88.25C105.555 88.25 106.026 88.409 106.338 88.627C106.652 88.847 106.75 89.079 106.75 89.25H108.25C108.25 88.455 107.789 87.812 107.198 87.398C106.605 86.983 105.825 86.75 105 86.75V88.25ZM103.25 92.75C103.25 92.5511 103.171 92.3603 103.03 92.2197C102.89 92.079 102.699 92 102.5 92C102.301 92 102.11 92.079 101.97 92.2197C101.829 92.3603 101.75 92.5511 101.75 92.75H103.25ZM105 91.75C105.555 91.75 106.026 91.909 106.338 92.127C106.652 92.347 106.75 92.579 106.75 92.75H108.25C108.25 91.955 107.789 91.312 107.198 90.898C106.605 90.483 105.825 90.25 105 90.25V91.75ZM106.75 92.75C106.75 92.921 106.652 93.153 106.338 93.373C106.026 93.591 105.555 93.75 105 93.75V95.25C105.825 95.25 106.605 95.017 107.198 94.602C107.789 94.188 108.25 93.545 108.25 92.75H106.75ZM105 93.75C104.445 93.75 103.974 93.591 103.662 93.373C103.348 93.153 103.25 92.921 103.25 92.75H101.75C101.75 93.545 102.211 94.188 102.802 94.602C103.395 95.017 104.175 95.25 105 95.25V93.75Z" fill="white"/>
<path d="M105.75 95C105.75 94.8011 105.671 94.6103 105.53 94.4697C105.39 94.329 105.199 94.25 105 94.25C104.801 94.25 104.61 94.329 104.47 94.4697C104.329 94.6103 104.25 94.8011 104.25 95H105.75ZM104.25 95.5C104.25 95.6989 104.329 95.8897 104.47 96.0303C104.61 96.171 104.801 96.25 105 96.25C105.199 96.25 105.39 96.171 105.53 96.0303C105.671 95.8897 105.75 95.6989 105.75 95.5H104.25ZM104.25 95V95.5H105.75V95H104.25ZM105.75 86.5C105.75 86.3011 105.671 86.1103 105.53 85.9697C105.39 85.829 105.199 85.75 105 85.75C104.801 85.75 104.61 85.829 104.47 85.9697C104.329 86.1103 104.25 86.3011 104.25 86.5H105.75ZM104.25 87C104.25 87.1989 104.329 87.3897 104.47 87.5303C104.61 87.671 104.801 87.75 105 87.75C105.199 87.75 105.39 87.671 105.53 87.5303C105.671 87.3897 105.75 87.1989 105.75 87H104.25ZM104.25 86.5V87H105.75V86.5H104.25Z" fill="white"/>
</g>
<defs>
<clipPath id="clip0_2_14355">
<rect width="201" height="114" rx="2" fill="white"/>
</clipPath>
</defs>
</svg>

<svg width="201" height="114" fill="none" xmlns="http://www.w3.org/2000/svg"><path fill="#fff" stroke="#C3C4C7" d="M.5.5h200v113H.5z"/><rect x="89" y="77" width="103" height="28" rx="4" fill="#1689db"/><rect x="9.5" y="9.5" width="71" height="95" rx="3.5" fill="#F6F7F7" stroke="#C3C4C7"/><rect x="36.75" y="48.75" width="16.5" height="16.5" rx="1.25" stroke="#A7AAAD" stroke-width="1.5"/><path d="M37 61l4.571-3.333L45 59.889 49 56l4 3.889" stroke="#A7AAAD" stroke-width="1.5" stroke-linejoin="round"/><path fill="#fff" d="M121 87h56v8h-56z"/><path fill="#646970" d="M89 13h72v12H89z"/><path fill="#DCDCDE" d="M89 33h96v8H89zm0 12h40v8H89z"/><rect x="97.001" y="83" width="16" height="16" rx="8" stroke="#fff" stroke-width="1.5"/><path d="M106.75 89.25a.75.75 0 001.5 0h-1.5zm-1.75 1c-.555 0-1.026-.159-1.338-.377-.314-.22-.412-.452-.412-.623h-1.5c0 .795.461 1.438 1.052 1.852.593.415 1.373.648 2.198.648v-1.5zm-1.75-1c0-.171.098-.403.412-.623.312-.218.783-.377 1.338-.377v-1.5c-.825 0-1.605.233-2.198.648-.591.414-1.052 1.057-1.052 1.852h1.5zm1.75-1c.555 0 1.026.159 1.338.377.314.22.412.452.412.623h1.5c0-.795-.461-1.438-1.052-1.852-.593-.415-1.373-.648-2.198-.648v1.5zm-1.75 4.5a.75.75 0 00-1.5 0h1.5zm1.75-1c.555 0 1.026.159 1.338.377.314.22.412.452.412.623h1.5c0-.795-.461-1.438-1.052-1.852-.593-.415-1.373-.648-2.198-.648v1.5zm1.75 1c0 .171-.098.403-.412.623-.312.218-.783.377-1.338.377v1.5c.825 0 1.605-.233 2.198-.648.591-.414 1.052-1.057 1.052-1.852h-1.5zm-1.75 1c-.555 0-1.026-.159-1.338-.377-.314-.22-.412-.452-.412-.623h-1.5c0 .795.461 1.438 1.052 1.852.593.415 1.373.648 2.198.648v-1.5z" fill="#fff"/><path d="M105.75 95a.75.75 0 00-1.5 0h1.5zm-1.5.5a.75.75 0 001.5 0h-1.5zm0-.5v.5h1.5V95h-1.5zm1.5-8.5a.75.75 0 00-1.5 0h1.5zm-1.5.5a.75.75 0 001.5 0h-1.5zm0-.5v.5h1.5v-.5h-1.5z" fill="#fff"/></svg>
